frontend/public/svg/interface/photo.svg

<svg width="157" height="156" viewBox="0 0 157 156" fill="none" xmlns="http://www.w3.org/2000/svg">
<g clip-path="url(#clip0)">
<path d="M52.3816 53.2803C55.1411 55.8328 58.5193 56.971 63.3378 56.971C63.3609 56.9733 63.3841 56.9733 63.4071 56.971C63.5554 56.9573 63.7373 56.9443 63.9431 56.93C64.4894 56.8917 65.2377 56.8377 65.9725 56.7285C68.0872 56.4465 70.1236 55.7401 71.9607 54.6514C73.7984 53.5626 75.3985 52.1137 76.6666 50.391C77.8757 48.6838 78.7308 46.7497 79.18 44.7038C79.6293 42.6579 79.6636 40.5421 79.2817 38.4825C78.4758 33.7759 76.2393 30.7682 72.6442 29.5456C70.1922 28.7181 67.5946 28.4137 65.0189 28.6518C62.4429 28.8901 59.9447 29.6656 57.6843 30.9288C55.5114 32.1174 53.6139 33.7547 52.1166 35.7328C50.6193 37.711 49.5563 39.9853 48.9975 42.4058C48.0136 46.6334 49.1522 50.2935 52.3816 53.2803ZM65.6786 36.7853C65.8081 36.7853 65.9414 36.7853 66.0702 36.7853C68.2458 36.7853 69.9644 37.0531 70.7955 39.2416C71.2163 40.4323 71.2739 41.7219 70.9593 42.9453C70.6453 44.1688 69.9741 45.27 69.0323 46.1076C66.6754 48.2565 61.6374 48.8304 58.8631 47.2671C57.0875 46.2674 56.5464 45.0234 56.995 42.9739C57.9109 38.7892 60.6697 36.8243 65.6786 36.7853Z" fill="black"/>
<path d="M33.8781 154.127C35.4776 154.062 37.1353 153.997 38.7439 153.997C48.5751 154.046 57.5597 154.144 66.2106 154.297C80.0629 154.541 94.2058 154.841 108.241 155.188C109.387 155.25 110.526 155.41 111.645 155.665C112.195 155.774 112.746 155.882 113.294 155.97C113.329 155.976 113.364 155.979 113.399 155.979H120.022C120.055 155.979 120.087 155.976 120.119 155.971C121.447 155.776 122.779 155.598 124.111 155.422C126.991 155.042 129.97 154.649 132.865 154.034C146.162 151.213 156.827 137.547 156.639 123.568C156.513 114.22 156.538 104.712 156.562 95.5162C156.579 88.9168 156.595 82.0937 156.558 75.3818C156.522 69.2458 156.305 63.0122 156.096 56.9867L155.962 53.1159C155.914 51.6651 155.871 50.2135 155.832 48.761C155.703 43.9841 155.567 39.0447 155.098 34.208C154.602 29.443 153.714 24.7274 152.444 20.1096C148.91 6.97957 136.391 0.810472 125.556 0.525123C122.459 0.443873 119.324 0.663455 116.291 0.875355C114.009 1.03525 111.651 1.20035 109.34 1.23415C103.051 1.32645 96.6533 1.36416 90.4696 1.40316C82.3298 1.45256 73.9129 1.50465 65.6352 1.6769L64.3894 1.70357C52.5224 1.95057 40.2502 2.20529 28.2239 3.14194C15.2578 4.15139 6.66227 10.3836 2.67488 21.667C2.00579 23.383 1.61373 25.1952 1.51358 27.0353L1.44887 32.4667C1.25144 48.3338 1.04689 64.7419 1.09479 80.8815C1.11551 88.129 1.35888 95.4922 1.5945 102.613C1.72396 106.605 1.86313 110.731 1.95829 114.789C2.06315 119.209 2.10007 122.925 1.94019 126.69C1.35762 140.351 13.2278 153.461 26.8393 154.196C29.1897 154.322 31.5737 154.223 33.8781 154.127ZM9.50715 38.6314C9.42682 32.8611 10.7874 27.1627 13.4648 22.0564C15.909 17.5194 19.5086 14.6898 23.876 13.8747C30.7885 12.5845 37.5567 11.4106 44.3728 11.226C61.6953 10.7554 79.314 10.4798 96.351 10.2133C104.941 10.0784 113.531 9.9361 122.121 9.78621C126.717 9.70041 131.27 11.0564 136.473 14.049C142.152 17.3133 143.962 23.2004 144.984 28.5291C147.13 39.7195 148.078 49.1009 147.969 58.0514C147.925 61.5805 147.893 65.1183 147.872 68.666C147.628 68.4405 147.391 68.2065 147.136 67.9939C143.776 65.1918 140.32 62.3947 136.977 59.69C132.948 56.4296 128.782 53.06 124.761 49.6585C119.514 45.2229 116.452 45.3361 111.653 50.1448C100.239 61.5776 88.5646 73.2271 77.2737 84.4929L64.5085 97.2329L64.2826 97.0463C63.8664 96.7025 63.5285 96.4236 63.188 96.1493C61.404 94.7057 59.6228 93.2588 57.8445 91.8092C53.5076 88.2772 49.0166 84.6255 44.5385 81.1103C41.2891 78.5597 38.964 78.5948 35.9624 81.2325C27.163 88.9675 18.269 96.8539 9.62554 104.523C9.53751 84.1692 9.47284 61.6297 9.50715 38.6314ZM10.5163 112.695C12.1993 111.275 13.8788 109.851 15.5549 108.422C18.7228 105.729 21.9982 102.944 25.2547 100.253C28.7418 97.3694 32.3466 94.4723 35.833 91.6728C37.2687 90.5184 38.7105 89.3575 40.1582 88.1907C42.0937 89.7585 44.014 91.3133 45.9192 92.8532C50.8918 96.8734 55.5894 100.669 60.3483 104.586C64.1202 107.691 66.4106 107.576 69.7773 104.122C70.9055 102.963 72.0156 101.786 73.1251 100.612C74.5777 99.0704 76.0794 97.4773 77.5973 95.9595C89.0643 84.4981 100.746 72.8676 112.044 61.6199L116.97 56.7156C117.445 56.2411 117.957 55.7848 118.368 55.4156L118.407 55.3818C120.511 57.0354 122.6 58.6821 124.674 60.3218C130.877 65.2204 136.736 69.8477 142.814 74.4569C144.354 75.5281 146.045 76.3627 147.83 76.9334C147.792 89.1469 147.836 101.358 147.881 113.3C147.896 116.932 147.909 120.564 147.92 124.195C147.948 132.995 140.891 142.63 132.508 145.233C126.235 147.137 119.685 147.952 113.139 147.642C104.227 147.274 95.1651 146.843 86.4052 146.427C82.7583 146.254 79.1107 146.08 75.4625 145.907H75.4321L65.5827 145.903C60.2781 145.9 54.9739 145.898 49.6704 145.898C43.9145 145.898 38.1588 145.902 32.403 145.911H32.3343C25.8043 145.911 20.9075 144.263 16.9285 140.73C12.0485 136.394 9.75571 130.455 9.71234 122.038C9.69745 119.217 9.68321 116.33 9.66897 113.393C9.95443 113.165 10.2399 112.928 10.5163 112.695Z" fill="black"/>
</g>
<defs>
<clipPath id="clip0">
<rect width="156" height="156" fill="white" transform="translate(0.777344)"/>
</clipPath>
</defs>
</svg>

<svg xmlns="http://www.w3.org/2000/svg" width="157" height="156" fill="none" viewBox="0 0 157 156"><g fill="#000" clip-path="url(#a)"><path d="M52.382 53.28c2.76 2.553 6.137 3.691 10.956 3.691a.4.4 0 0 0 .07 0c.147-.014.33-.027.535-.041a27 27 0 0 0 2.03-.202 15.9 15.9 0 0 0 5.988-2.077 15.9 15.9 0 0 0 4.706-4.26 15.65 15.65 0 0 0 2.513-5.687 15.7 15.7 0 0 0 .102-6.221c-.806-4.707-3.043-7.715-6.638-8.937a18.52 18.52 0 0 0-14.96 1.383 17.5 17.5 0 0 0-5.567 4.804 17.6 17.6 0 0 0-3.12 6.673c-.983 4.227.155 7.888 3.385 10.874m13.297-16.495h.391c2.176 0 3.894.268 4.726 2.457a6.36 6.36 0 0 1-1.764 6.866c-2.357 2.149-7.395 2.722-10.169 1.16-1.776-1-2.317-2.245-1.868-4.294.916-4.185 3.675-6.15 8.684-6.189"/><path d="M33.878 154.127c1.6-.065 3.257-.13 4.866-.13 9.831.049 18.816.147 27.467.3 13.852.244 27.995.544 42.03.891 1.146.062 2.285.222 3.404.477.55.109 1.101.217 1.649.305a1 1 0 0 0 .105.009h6.623a1 1 0 0 0 .097-.008c1.328-.195 2.66-.373 3.992-.549 2.88-.38 5.859-.773 8.754-1.388 13.297-2.821 23.962-16.487 23.774-30.466-.126-9.348-.101-18.856-.077-28.052.017-6.6.033-13.422-.004-20.134-.036-6.136-.253-12.37-.462-18.395l-.134-3.871a699 699 0 0 1-.13-4.355c-.129-4.777-.265-9.716-.734-14.553a87 87 0 0 0-2.654-14.098C148.91 6.98 136.391.81 125.556.525c-3.097-.081-6.232.138-9.265.35-2.282.16-4.64.325-6.951.36-6.289.091-12.687.13-18.87.168-8.14.05-16.557.102-24.835.274l-1.246.027c-11.867.247-24.139.501-36.165 1.438-12.966 1.01-21.562 7.242-25.55 18.525a17.4 17.4 0 0 0-1.16 5.368l-.065 5.432c-.198 15.867-.402 32.275-.354 48.415.02 7.247.264 14.61.5 21.731.129 3.992.268 8.118.363 12.176.105 4.42.142 8.136-.018 11.901-.582 13.661 11.288 26.771 24.9 27.506 2.35.126 4.734.027 7.038-.069M9.508 38.631a34.66 34.66 0 0 1 3.957-16.575c2.444-4.537 6.044-7.366 10.411-8.181 6.912-1.29 13.68-2.464 20.497-2.649 17.322-.47 34.941-.746 51.978-1.013q12.885-.202 25.77-.427c4.596-.086 9.149 1.27 14.352 4.263 5.679 3.264 7.489 9.151 8.511 14.48 2.146 11.19 3.094 20.572 2.985 29.522q-.066 5.294-.097 10.615c-.244-.225-.481-.46-.736-.672-3.36-2.802-6.816-5.6-10.159-8.304-4.029-3.26-8.195-6.63-12.216-10.032-5.247-4.435-8.309-4.322-13.108.487a25285 25285 0 0 1-34.38 34.348L64.51 97.233l-.226-.187c-.417-.344-.755-.622-1.095-.897q-2.676-2.165-5.344-4.34c-4.336-3.532-8.827-7.183-13.306-10.699-3.249-2.55-5.574-2.515-8.576.123a7639 7639 0 0 0-26.336 23.29c-.088-20.354-.153-42.893-.119-65.892m1.008 74.064q2.525-2.13 5.039-4.273c3.168-2.693 6.443-5.478 9.7-8.169 3.487-2.884 7.092-5.78 10.578-8.58q2.154-1.732 4.325-3.482l5.761 4.662c4.973 4.02 9.67 7.816 14.43 11.733 3.771 3.105 6.062 2.99 9.428-.464 1.129-1.159 2.239-2.336 3.348-3.51 1.453-1.542 2.954-3.135 4.472-4.652a24621 24621 0 0 1 34.447-34.34l4.926-4.904c.475-.475.987-.931 1.398-1.3l.039-.034q3.156 2.48 6.267 4.94c6.203 4.898 12.062 9.526 18.14 14.135a18.8 18.8 0 0 0 5.016 2.476c-.038 12.214.006 24.425.051 36.367q.023 5.448.039 10.895c.028 8.8-7.029 18.435-15.412 21.038a57.3 57.3 0 0 1-19.369 2.409c-8.912-.368-17.974-.799-26.734-1.215l-10.942-.52h-.03l-9.85-.004q-7.958-.005-15.913-.005-8.633 0-17.267.013h-.069c-6.53 0-11.427-1.648-15.406-5.181-4.88-4.336-7.172-10.275-7.216-18.692l-.043-8.645c.285-.228.57-.465.847-.698"/></g><defs><clipPath id="a"><path fill="#fff" d="M.777 0h156v156h-156z"/></clipPath></defs></svg>
